icons/light/rs.svg

<svg width="16" height="16" viewBox="0 0 16 16" fill="none" xmlns="http://www.w3.org/2000/svg">
<path d="M14.6 7.8L14 7.46667V7.33334L14.4667 6.86667C14.5333 6.8 14.5333 6.66667 14.4667 6.6L14.4 6.53334L13.8 6.33334C13.8 6.26667 13.8 6.2 13.7333 6.2L14.1333 5.66667C14.2 5.6 14.2 5.46667 14.0667 5.4C14.0667 5.4 14 5.4 14 5.33334L13.3333 5.2C13.3333 5.13334 13.2667 5.13334 13.2667 5.06667L13.5333 4.46667V4.26667C13.4667 4.2 13.4 4.2 13.3333 4.2H12.6667C12.6667 4.2 12.6667 4.13334 12.6 4.13334L12.7333 3.46667C12.7333 3.33334 12.6667 3.26667 12.6 3.26667H12.5333L11.8667 3.4C11.8667 3.33334 11.8 3.33334 11.7333 3.26667V2.6C11.7333 2.46667 11.6667 2.4 11.5333 2.4H11.4667L10.8667 2.66667H10.8L10.6667 2C10.6667 1.86667 10.5333 1.8 10.4667 1.86667H10.4L9.86667 2.26667C9.8 2.26667 9.73334 2.26667 9.73334 2.2L9.53334 1.6C9.46667 1.53334 9.4 1.46667 9.26667 1.46667C9.26667 1.46667 9.2 1.46667 9.2 1.53334L8.66667 2H8.53334L8.2 1.46667C8.13334 1.33334 8 1.33334 7.86667 1.33334L7.8 1.4L7.46667 2H7.33334L6.86667 1.53334C6.8 1.46667 6.66667 1.46667 6.6 1.53334L6.53334 1.6L6.33334 2.2C6.26667 2.2 6.2 2.2 6.2 2.26667L5.66667 1.86667C5.53334 1.8 5.4 1.8 5.33334 1.93334V2L5.2 2.66667C5.2 2.66667 5.13334 2.66667 5.06667 2.73334L4.46667 2.46667C4.4 2.4 4.26667 2.46667 4.2 2.53334V3.26667C4.2 3.33334 4.13334 3.33334 4.13334 3.4L3.46667 3.26667C3.33334 3.2 3.26667 3.26667 3.26667 3.4V3.46667L3.4 4.13334C3.33334 4.13334 3.33334 4.2 3.26667 4.2H2.6C2.46667 4.2 2.4 4.26667 2.4 4.4V4.46667L2.66667 5.06667V5.2L2 5.33334C1.86667 5.33334 1.8 5.46667 1.8 5.53334V5.6L2.2 6.13334C2.2 6.2 2.2 6.26667 2.13334 6.26667L1.6 6.53334C1.53334 6.6 1.46667 6.66667 1.46667 6.8C1.46667 6.8 1.46667 6.86667 1.53334 6.86667L2 7.33334V7.46667L1.46667 7.8C1.33334 7.86667 1.33334 8 1.33334 8.06667L1.4 8.13334L2 8.53334V8.66667L1.53334 9.13334C1.46667 9.2 1.46667 9.33334 1.53334 9.4L1.6 9.46667L2.2 9.66667C2.2 9.73334 2.2 9.8 2.26667 9.8L1.86667 10.3333C1.8 10.4 1.8 10.5333 1.93334 10.6C1.93334 10.6 2 10.6 2 10.6667L2.66667 10.8C2.66667 10.8667 2.73334 10.8667 2.73334 10.9333L2.46667 11.5333C2.4 11.6 2.46667 11.7333 2.53334 11.8H3.26667C3.33334 11.8 3.33334 11.8667 3.4 11.8667L3.26667 12.5333C3.26667 12.6667 3.33334 12.7333 3.4 12.7333H3.46667L4.13334 12.6C4.13334 12.6667 4.2 12.6667 4.26667 12.7333V13.4C4.26667 13.5333 4.33334 13.6 4.46667 13.6H4.53334L5.13334 13.3333H5.2L5.33334 14C5.33334 14.1333 5.46667 14.2 5.53334 14.1333H5.6L6.13334 13.7333C6.2 13.7333 6.26667 13.7333 6.26667 13.8L6.46667 14.4C6.53334 14.4667 6.6 14.5333 6.73334 14.5333C6.73334 14.5333 6.8 14.5333 6.8 14.4667L7.33334 14H7.46667L7.8 14.5333C7.86667 14.6 8 14.6667 8.06667 14.6L8.13334 14.5333L8.46667 14H8.6L9.06667 14.4667C9.13334 14.5333 9.26667 14.5333 9.33334 14.4667L9.4 14.4L9.6 13.8C9.66667 13.8 9.73334 13.8 9.73334 13.7333L10.2667 14.1333C10.3333 14.2 10.4667 14.2 10.5333 14.0667C10.5333 14.0667 10.5333 14 10.6 14L10.7333 13.3333C10.8 13.3333 10.8 13.2667 10.8667 13.2667L11.4667 13.5333C11.5333 13.6 11.6667 13.5333 11.7333 13.4667V12.7333L11.8667 12.6L12.5333 12.7333C12.6667 12.7333 12.7333 12.6667 12.7333 12.6V12.5333L12.6 11.8667L12.7333 11.7333H13.4C13.5333 11.7333 13.6 11.6667 13.6 11.5333V11.4667L13.3333 10.8667C13.3333 10.8 13.4 10.8 13.4 10.7333L14.0667 10.6C14.2 10.6 14.2667 10.4667 14.2 10.4V10.3333L13.8 9.8L13.8667 9.66667L14.4667 9.46667C14.5333 9.4 14.6 9.33334 14.6 9.2C14.6 9.2 14.6 9.13334 14.5333 9.13334L14 8.66667V8.53334L14.5333 8.2C14.6667 8.13334 14.6667 8 14.6 7.8C14.6 7.86667 14.6 7.86667 14.6 7.8ZM10.8 12.4667C10.6 12.4 10.4667 12.2 10.4667 12C10.5333 11.8 10.7333 11.6667 10.9333 11.6667C11.1333 11.7333 11.2667 11.9333 11.2667 12.1333C11.2667 12.4 11.0667 12.5333 10.8 12.4667ZM10.6667 11.2C10.4667 11.1333 10.2667 11.2667 10.2667 11.4667L10 12.4C9.4 12.6667 8.73334 12.8 8 12.8C7.26667 12.8 6.6 12.6667 5.93334 12.3333L5.73334 11.4C5.66667 11.2 5.53334 11.0667 5.33334 11.1333L4.53334 11.3333C4.4 11.2 4.26667 11 4.13334 10.8667H8.13334C8.2 10.8667 8.2 10.8667 8.2 10.8V9.4C8.2 9.33334 8.2 9.33334 8.13334 9.33334H7V8.46667H8.26667C8.4 8.46667 8.86667 8.46667 9.06667 9.13334C9.13334 9.33334 9.2 10 9.33334 10.2C9.4 10.4 9.73334 10.8667 10.0667 10.8667H12.1333C12 11.0667 11.8667 11.2 11.6667 11.4L10.6667 11.2ZM5.13334 12.4667C4.93334 12.5333 4.73334 12.4 4.66667 12.1333C4.6 11.9333 4.73334 11.7333 5 11.6667C5.26667 11.6 5.4 11.7333 5.46667 12C5.46667 12.2 5.33334 12.4 5.13334 12.4667ZM3.6 6.33334C3.66667 6.53334 3.6 6.8 3.4 6.86667C3.2 6.93334 2.93334 6.86667 2.86667 6.66667C2.8 6.46667 2.86667 6.2 3.06667 6.13334C3.33334 6.06667 3.53334 6.13334 3.6 6.33334ZM3.13334 7.4L4 7.06667C4.2 7 4.26667 6.8 4.2 6.6L4 6.2H4.66667V9.33334H3.33334C3.13334 8.66667 3.06667 8.06667 3.13334 7.4ZM6.86667 7.13334V6.2H8.53334C8.6 6.2 9.13334 6.26667 9.13334 6.66667C9.13334 7 8.73334 7.13334 8.4 7.13334H6.86667ZM12.8667 7.93334V8.26667H12.3333C12.2667 8.26667 12.2667 8.26667 12.2667 8.33334V8.53334C12.2667 9.06667 11.9333 9.2 11.6667 9.2C11.4 9.2 11.1333 9.06667 11.0667 8.93334C10.9333 8.06667 10.6667 7.93334 10.2667 7.6C10.7333 7.26667 11.2667 6.8 11.2667 6.2C11.2667 5.53334 10.8 5.13334 10.5333 4.93334C10.0667 4.66667 9.6 4.6 9.46667 4.6H4.4C5.13334 3.8 6.06667 3.26667 7.13334 3.06667L7.73334 3.73334C7.86667 3.86667 8.06667 3.86667 8.26667 3.73334L8.93334 3.06667C10.3333 3.33334 11.5333 4.2 12.2667 5.46667L11.8 6.53334C11.7333 6.73334 11.8 6.93334 12 7L12.8667 7.4V7.93334ZM7.73334 2.6C7.86667 2.46667 8.13334 2.46667 8.26667 2.6C8.4 2.73334 8.4 3 8.26667 3.13334C8.06667 3.33334 7.86667 3.33334 7.66667 3.13334C7.53334 3 7.6 2.8 7.73334 2.6ZM12.3333 6.33334C12.4 6.13334 12.6667 6.06667 12.8667 6.13334C13.0667 6.2 13.1333 6.46667 13.0667 6.66667C13 6.86667 12.7333 6.93334 12.5333 6.86667C12.3333 6.8 12.2667 6.53334 12.3333 6.33334Z" fill="#424242"/>
</svg>

<svg xmlns="http://www.w3.org/2000/svg" width="16" height="16" fill="none" xmlns:v="https://vecta.io/nano"><path d="M14.6 7.8l-.6-.333v-.133l.467-.467c.067-.067.067-.2 0-.267l-.067-.067-.6-.2c0-.067 0-.133-.067-.133l.4-.533c.067-.067.067-.2-.067-.267 0 0-.067 0-.067-.067l-.667-.133c0-.067-.067-.067-.067-.133l.267-.6v-.2c-.067-.067-.133-.067-.2-.067h-.667s0-.067-.067-.067l.133-.667c0-.133-.067-.2-.133-.2h-.067l-.667.133c0-.067-.067-.067-.133-.133V2.6c0-.133-.067-.2-.2-.2h-.067l-.6.267H10.8L10.667 2c0-.133-.133-.2-.2-.133H10.4l-.533.4c-.067 0-.133 0-.133-.067l-.2-.6c-.067-.067-.133-.133-.267-.133 0 0-.067 0-.067.067L8.667 2h-.133L8.2 1.467c-.067-.133-.2-.133-.333-.133L7.8 1.4l-.333.6h-.133l-.467-.467c-.067-.067-.2-.067-.267 0l-.067.067-.2.6c-.067 0-.133 0-.133.067l-.533-.4c-.133-.067-.267-.067-.333.067V2l-.133.667s-.067 0-.133.067l-.6-.267c-.067-.067-.2 0-.267.067v.733c0 .067-.067.067-.067.133l-.667-.133c-.133-.067-.2 0-.2.133v.067l.133.667c-.067 0-.067.067-.133.067H2.6c-.133 0-.2.067-.2.2v.067l.267.6V5.2L2 5.333c-.133 0-.2.133-.2.2V5.6l.4.533c0 .067 0 .133-.067.133l-.533.267c-.067.067-.133.133-.133.267 0 0 0 .067.067.067L2 7.333v.133l-.533.333c-.133.067-.133.2-.133.267l.067.067.6.4v.133l-.467.467c-.067.067-.067.2 0 .267l.067.067.6.2c0 .067 0 .133.067.133l-.4.533c-.067.067-.067.2.067.267 0 0 .067 0 .067.067l.667.133c0 .067.067.067.067.133l-.267.6c-.067.067 0 .2.067.267h.733c.067 0 .067.067.133.067l-.133.667c0 .133.067.2.133.2h.067l.667-.133c0 .067.067.067.133.133v.667c0 .133.067.2.2.2h.067l.6-.267H5.2l.133.667c0 .133.133.2.2.133H5.6l.533-.4c.067 0 .133 0 .133.067l.2.6c.067.067.133.133.267.133 0 0 .067 0 .067-.067L7.333 14h.133l.333.533c.067.067.2.133.267.067l.067-.067.333-.533H8.6l.467.467c.067.067.2.067.267 0L9.4 14.4l.2-.6c.067 0 .133 0 .133-.067l.533.4c.067.067.2.067.267-.067 0 0 0-.067.067-.067l.133-.667c.067 0 .067-.067.133-.067l.6.267c.067.067.2 0 .267-.067v-.733l.133-.133.667.133c.133 0 .2-.067.2-.133v-.067l-.133-.667.133-.133h.667c.133 0 .2-.067.2-.2v-.067l-.267-.6c0-.067.067-.067.067-.133l.667-.133c.133 0 .2-.133.133-.2v-.067l-.4-.533.067-.133.6-.2c.067-.067.133-.133.133-.267 0 0 0-.067-.067-.067L14 8.667v-.133l.533-.333c.133-.067.133-.2.067-.4 0 .067 0 .067 0 0zm-3.8 4.667a.5.5 0 0 1-.333-.467.5.5 0 0 1 .467-.333.5.5 0 0 1 .333.467c0 .267-.2.4-.467.333zm-.133-1.267c-.2-.067-.4.067-.4.267L10 12.4a4.87 4.87 0 0 1-2 .4c-.733 0-1.4-.133-2.067-.467l-.2-.933c-.067-.2-.2-.333-.4-.267l-.8.2c-.133-.133-.267-.333-.4-.467h4c.067 0 .067 0 .067-.067V9.4c0-.067 0-.067-.067-.067H7v-.867h1.267c.133 0 .6 0 .8.667.067.2.133.867.267 1.067.067.2.4.667.733.667h2.067c-.133.2-.267.333-.467.533l-1-.2zm-5.533 1.267c-.2.067-.4-.067-.467-.333-.067-.2.067-.4.333-.467s.4.067.467.333a.5.5 0 0 1-.333.467zM3.6 6.333c.067.2 0 .467-.2.533s-.467 0-.533-.2 0-.467.2-.533c.267-.067.467 0 .533.2zM3.133 7.4L4 7.067c.2-.067.267-.267.2-.467L4 6.2h.667v3.133H3.333c-.2-.667-.267-1.267-.2-1.933zm3.733-.267V6.2h1.667c.067 0 .6.067.6.467 0 .333-.4.467-.733.467H6.867zm6 .8v.333h-.533c-.067 0-.067 0-.067.067v.2c0 .533-.333.667-.6.667s-.533-.133-.6-.267c-.133-.867-.4-1-.8-1.333.467-.333 1-.8 1-1.4 0-.667-.467-1.067-.733-1.267-.467-.267-.933-.333-1.067-.333H4.4c.733-.8 1.667-1.333 2.733-1.533l.6.667c.133.133.333.133.533 0l.667-.667c1.4.267 2.6 1.133 3.333 2.4L11.8 6.533c-.067.2 0 .4.2.467l.867.4v.533zM7.733 2.6c.133-.133.4-.133.533 0s.133.4 0 .533a.37.37 0 0 1-.6 0C7.533 3 7.6 2.8 7.733 2.6zm4.6 3.733c.067-.2.333-.267.533-.2s.267.333.2.533-.333.267-.533.2-.267-.333-.2-.533z" fill="#424242"/></svg>
